static/assets/images/exchanges/bluemove.svg

<svg width="261" height="256" viewBox="0 0 261 256" fill="none" xmlns="http://www.w3.org/2000/svg">
<path d="M242.96 226.865C228.345 243.303 211.37 252.912 192.412 255.335C161.135 259.248 139.045 245.107 121.297 233.631C106.014 223.875 94.7392 218.379 80.7397 218.379C78.1389 218.368 75.5402 218.536 72.9622 218.882C63.6292 220.015 54.6303 224.631 46.2474 232.446C40.1054 238.427 34.8022 245.22 30.4836 252.639L0.0313279 237.386C5.12477 228.308 11.1575 219.796 18.0292 211.99C32.9578 195.101 49.9951 185.346 68.5776 182.965C99.1015 179.057 120.61 192.901 139.643 205.151L139.723 205.203C157.784 216.837 170.186 222.386 187.933 220.099C197.089 218.903 206.15 214.235 214.648 206.42C220.855 200.474 226.225 193.705 230.61 186.3L260.937 201.458C255.854 210.532 249.835 219.044 242.981 226.855L242.96 226.865Z" fill="#397BFF"/>
<path d="M242.96 135.781C228.345 152.229 211.37 161.796 192.412 164.282C161.135 168.195 139.045 153.991 121.297 142.568C106.014 132.676 94.7392 127.252 80.7397 127.252C78.1391 127.269 75.5418 127.444 72.9622 127.777C63.6292 128.962 54.693 133.63 46.2474 141.309C40.1137 147.302 34.8115 154.097 30.4836 161.513L0.0208917 146.302C5.10846 137.175 11.1412 128.613 18.0187 120.759C32.9473 103.902 49.9847 94.1671 68.5672 91.8069C99.1343 87.9046 120.661 101.73 139.713 113.983C157.773 125.7 170.176 131.155 187.923 128.878C197.078 127.725 206.14 123.025 214.638 115.21C220.849 109.292 226.22 102.543 230.6 95.1532L261 110.343C255.914 119.475 249.866 128.031 242.96 135.865V135.781Z" fill="#397BFF"/>
<path d="M242.96 44.6651C228.345 61.1028 211.37 70.7326 192.412 73.1558C161.135 77.058 139.045 62.9176 121.297 51.4311C106.014 41.6649 94.7392 36.1682 80.7397 36.1682C78.1381 36.1545 75.5388 36.3298 72.9622 36.6927C63.6292 37.8885 54.693 42.4412 46.2474 50.2352C40.1137 56.228 34.8115 63.0236 30.4836 70.4389L0 55.176C5.11602 46.0805 11.1506 37.5386 18.0083 29.6854C32.9786 12.8281 49.9638 3.11435 68.5567 0.670189C99.1134 -3.23207 120.692 10.6566 139.692 22.9089C157.753 34.6262 170.155 40.0809 187.902 37.8046C197.058 36.6193 206.119 31.9512 214.617 24.1362C220.816 18.1914 226.186 11.4304 230.579 4.03747L260.99 19.2689C255.887 28.3747 249.844 36.9152 242.96 44.749V44.6651Z" fill="#397BFF"/>
</svg>

<svg xmlns="http://www.w3.org/2000/svg" fill="none" viewBox="0 0 261 256"><path fill="#397BFF" d="M242.96 226.865c-14.615 16.438-31.59 26.047-50.548 28.47-31.277 3.913-53.367-10.228-71.115-21.704-15.283-9.756-26.558-15.252-40.557-15.252-2.601-.011-5.2.157-7.778.503-9.333 1.133-18.332 5.749-26.715 13.564a94.6 94.6 0 0 0-15.763 20.193L.03 237.386a148 148 0 0 1 18-25.396c14.929-16.889 31.966-26.644 50.549-29.025 30.524-3.908 52.032 9.936 71.065 22.186l.08.052c18.061 11.634 30.463 17.183 48.21 14.896 9.156-1.196 18.217-5.864 26.715-13.679a94.6 94.6 0 0 0 15.962-20.12l30.327 15.158a148.7 148.7 0 0 1-17.956 25.397zm0-91.084c-14.615 16.448-31.59 26.015-50.548 28.501-31.277 3.913-53.367-10.291-71.115-21.714-15.283-9.892-26.558-15.316-40.557-15.316-2.6.017-5.198.192-7.778.525-9.333 1.185-18.269 5.853-26.715 13.532a95.6 95.6 0 0 0-15.763 20.204L.02 146.302a148.6 148.6 0 0 1 17.998-25.543c14.928-16.857 31.966-26.592 50.548-28.952 30.567-3.902 52.094 9.923 71.146 22.176 18.06 11.717 30.463 17.172 48.21 14.895 9.155-1.153 18.217-5.853 26.715-13.668A93.7 93.7 0 0 0 230.6 95.153l30.4 15.19a146 146 0 0 1-18.04 25.522zm0-91.116c-14.615 16.438-31.59 26.068-50.548 28.49-31.277 3.903-53.367-10.237-71.115-21.724-15.283-9.766-26.558-15.263-40.557-15.263a54 54 0 0 0-7.778.525c-9.333 1.196-18.269 5.748-26.715 13.542A95.7 95.7 0 0 0 30.484 70.44L0 55.176a152 152 0 0 1 18.008-25.49C32.978 12.827 49.964 3.113 68.557.67c30.556-3.902 52.135 9.987 71.135 22.239 18.061 11.717 30.463 17.172 48.21 14.896 9.156-1.186 18.217-5.854 26.715-13.669a95.3 95.3 0 0 0 15.962-20.099L260.99 19.27a148.8 148.8 0 0 1-18.03 25.48z"/></svg>
